!!! OTL: Berkowitz377
!!! Chapter: 1
!!! Section: III
!!! Page: 93
!!! Mode: 
!!! Encoder: DJB
**kern
*staff1
*I"Piano
=1-
*clefG2
*k[f#]
*G:
*M3/4
8b/L
8a/J
8f#/L
8g/J
8a/L
8b/J
=2
4.d/
8e/
4d/
=3
8e/L
8g/J
8cc\L
8ee\J
8f#\L
8ee\J
=4
8dd\L
8b\J
2g/
=5
8e/L
8dd/J
4cc\
8e-/L
8cc/J
=6
8b/L
8a/J
4.g/
8a/
=7
8b-/L
8a/J
4.g/
8a/
=8
!!linebreak:original
8b/L
8a/J
8g/L
8f#/J
8e/L
8d/J
=9
8c#/L
8d/J
[2cc\
=10
8cc\L]
8b\J
8dd\L
8cc\J
8a/L
8f#/J
=11
2.g/
==
*-
